svg/emoji_u1f480.svg

<svg width="128" height="128" viewBox="0 0 128 128" fill="none" xmlns="http://www.w3.org/2000/svg">
<path d="M111.79 67.58C112.36 64.17 114.72 52.03 112.57 40.11C111.2 32.52 106.46 22.61 101.17 17.6C90.96 7.93 76.74 4 63.66 4C50.58 4 37.07 7.93 26.86 17.6C21.57 22.61 16.83 32.53 15.46 40.11C13.31 52.03 15.67 64.17 16.24 67.58C17.01 72.23 14.97 77.37 14.57 82C14.14 87.04 16.52 90.95 20.78 93.72C24.33 96.03 28.47 97.25 32.31 99.04C36.88 101.17 32.73 108.86 34.42 112.74C35.27 114.7 37.13 116.05 39.05 117C41.49 118.22 44.3 118.98 46.95 118.31C46.55 118.41 47.71 120.74 49.24 121.69C50.64 122.55 52.37 123.43 53.98 123.78C57.18 124.48 60.35 123.3 62.33 122.28C63.41 121.72 64.67 121.72 65.74 122.28C67.72 123.3 70.89 124.48 74.09 123.78C76.5 123.25 78.65 121.82 80.19 119.95C80.91 119.07 82.03 118.59 83.16 118.67C86.52 118.89 91.66 117.52 93.89 112.45C95.14 109.63 93.88 106.31 94.71 103.36C96.12 98.36 101.04 97.12 105 94.79C110.25 91.71 113.35 88.26 113.49 83.4C113.63 78.24 111.13 71.57 111.79 67.58Z" fill="url(#paint0_radial_402_175)" style=""/>
<path d="M51.8928 67.3831C53.8567 60.0534 50.0475 52.6644 43.3847 50.8792C36.7218 49.094 29.7285 53.5886 27.7647 60.9182C25.8008 68.2479 29.61 75.6369 36.2728 77.4221C42.9356 79.2073 49.929 74.7127 51.8928 67.3831Z" fill="#37494F" style="fill:#37494F;fill:color(display-p3 0.2158 0.2861 0.3083);fill-opacity:1;"/>
<path d="M91.7523 77.4204C98.4151 75.6352 102.224 68.2461 100.261 60.9165C98.2966 53.5869 91.3033 49.0922 84.6405 50.8775C77.9777 52.6627 74.1685 60.0517 76.1323 67.3813C78.0962 74.711 85.0895 79.2056 91.7523 77.4204Z" fill="#37494F" style="fill:#37494F;fill:color(display-p3 0.2158 0.2861 0.3083);fill-opacity:1;"/>
<path d="M55.98 86.71C55.98 82.28 59.57 71.3 64.01 71.3C68.45 71.3 72.04 82.27 72.04 86.71C72.04 95.72 64.01 89.58 64.01 89.58C64.01 89.58 55.98 96.24 55.98 86.71Z" fill="#37494F" style="fill:#37494F;fill:color(display-p3 0.2158 0.2861 0.3083);fill-opacity:1;"/>
<path d="M42.63 118.43C41.43 118.2 40.29 117.83 39.27 117.08C40.12 116.88 40.97 116.66 41.75 116.28C43.69 115.31 43.64 113.75 44.07 111.83C44.44 110.15 44.8 108.47 45.23 106.8C45.52 105.68 46.26 104.61 47.41 104.77C48.85 104.97 48.99 105.99 48.75 107.54C48.52 108.98 46.78 118.47 46.78 118.48C46.7 118.91 43.81 118.62 43.53 118.58C43.23 118.54 42.93 118.49 42.63 118.43Z" fill="#8ABFD1" style="fill:#8ABFD1;fill:color(display-p3 0.5412 0.7490 0.8196);fill-opacity:1;"/>
<path d="M86.0401 118.43C87.2401 118.2 88.3801 117.83 89.4001 117.08C88.5501 116.88 87.7001 116.66 86.9201 116.28C84.9801 115.31 85.0301 113.75 84.6001 111.83C84.2301 110.15 83.8701 108.47 83.4401 106.8C83.1501 105.68 82.4101 104.61 81.2601 104.77C79.8201 104.97 79.6801 105.99 79.9201 107.54C80.1501 108.98 81.8901 118.47 81.8901 118.48C81.9701 118.91 84.8601 118.62 85.1401 118.58C85.4401 118.54 85.7401 118.49 86.0401 118.43Z" fill="#8ABFD1" style="fill:#8ABFD1;fill:color(display-p3 0.5412 0.7490 0.8196);fill-opacity:1;"/>
<path d="M59.47 123.45C59.47 123.45 61.74 120.39 61.82 118.3C61.97 114.57 62.18 109.53 62.18 106.61C62.18 105.45 62.88 104.56 64.05 104.56C65.21 104.56 65.86 105.34 65.86 106.5C65.86 106.55 66.13 113.33 66.13 118.05C66.13 120.23 68.57 123.44 68.57 123.44C67.57 122.99 65.82 122.12 64.02 122.2C61.74 122.31 59.47 123.45 59.47 123.45Z" fill="#8ABFD1" style="fill:#8ABFD1;fill:color(display-p3 0.5412 0.7490 0.8196);fill-opacity:1;"/>
<defs>
<radialGradient id="paint0_radial_402_175" cx="0" cy="0" r="1" gradientUnits="userSpaceOnUse" gradientTransform="translate(63.8872 74.9213) scale(64.9356 70.3837)">
<stop offset="0.3956" stop-color="#E1E7EA" style="stop-color:#E1E7EA;stop-color:color(display-p3 0.8824 0.9059 0.9176);stop-opacity:1;"/>
<stop offset="0.9934" stop-color="#D6E1E6" style="stop-color:#D6E1E6;stop-color:color(display-p3 0.8392 0.8824 0.9020);stop-opacity:1;"/>
</radialGradient>
</defs>
</svg>

<?xml version="1.0" encoding="utf-8"?>
<!-- Generator: Adobe Illustrator 24.1.2, SVG Export Plug-In . SVG Version: 6.00 Build 0)  -->
<svg version="1.1" id="Layer_4" xmlns="http://www.w3.org/2000/svg" xmlns:xlink="http://www.w3.org/1999/xlink" x="0px" y="0px"
	 viewBox="0 0 128 128" style="enable-background:new 0 0 128 128;" xml:space="preserve">
<g>
	
		<radialGradient id="SVGID_1_" cx="63.8872" cy="74.9249" r="64.9356" gradientTransform="matrix(1 0 0 1.0839 0 -6.2898)" gradientUnits="userSpaceOnUse">
		<stop  offset="0.3956" style="stop-color:#E1E7EA"/>
		<stop  offset="0.9934" style="stop-color:#D6E1E6"/>
	</radialGradient>
	<path style="fill:url(#SVGID_1_);" d="M111.79,67.58c0.57-3.41,2.93-15.55,0.78-27.47c-1.37-7.59-6.11-17.5-11.4-22.51
		C90.96,7.93,76.74,4,63.66,4s-26.59,3.93-36.8,13.6c-5.29,5.01-10.03,14.93-11.4,22.51c-2.15,11.92,0.21,24.06,0.78,27.47
		c0.77,4.65-1.27,9.79-1.67,14.42c-0.43,5.04,1.95,8.95,6.21,11.72c3.55,2.31,7.69,3.53,11.53,5.32c4.57,2.13,0.42,9.82,2.11,13.7
		c0.85,1.96,2.71,3.31,4.63,4.26c2.44,1.22,5.25,1.98,7.9,1.31c-0.4,0.1,0.76,2.43,2.29,3.38c1.4,0.86,3.13,1.74,4.74,2.09
		c3.2,0.7,6.37-0.48,8.35-1.5c1.08-0.56,2.34-0.56,3.41,0c1.98,1.02,5.15,2.2,8.35,1.5c2.41-0.53,4.56-1.96,6.1-3.83
		c0.72-0.88,1.84-1.36,2.97-1.28c3.36,0.22,8.5-1.15,10.73-6.22c1.25-2.82-0.01-6.14,0.82-9.09c1.41-5,6.33-6.24,10.29-8.57
		c5.25-3.08,8.35-6.53,8.49-11.39C113.63,78.24,111.13,71.57,111.79,67.58z"/>
	<g>
		
			<ellipse transform="matrix(0.2588 -0.9659 0.9659 0.2588 -32.4418 86.0203)" style="fill:#424242;" cx="39.83" cy="64.15" rx="13.74" ry="12.49"/>
	</g>
	<g>
		
			<ellipse transform="matrix(0.9659 -0.2588 0.2588 0.9659 -13.598 25.0125)" style="fill:#424242;" cx="88.2" cy="64.15" rx="12.49" ry="13.74"/>
	</g>
	<path style="fill:#424242;" d="M55.98,86.71c0-4.43,3.59-15.41,8.03-15.41s8.03,10.97,8.03,15.41c0,9.01-8.03,2.87-8.03,2.87
		S55.98,96.24,55.98,86.71z"/>
	<path style="fill:#8ABFD1;" d="M42.63,118.43c-1.2-0.23-2.34-0.6-3.36-1.35c0.85-0.2,1.7-0.42,2.48-0.8
		c1.94-0.97,1.89-2.53,2.32-4.45c0.37-1.68,0.73-3.36,1.16-5.03c0.29-1.12,1.03-2.19,2.18-2.03c1.44,0.2,1.58,1.22,1.34,2.77
		c-0.23,1.44-1.97,10.93-1.97,10.94c-0.08,0.43-2.97,0.14-3.25,0.1C43.23,118.54,42.93,118.49,42.63,118.43z"/>
	<path style="fill:#8ABFD1;" d="M86.04,118.43c1.2-0.23,2.34-0.6,3.36-1.35c-0.85-0.2-1.7-0.42-2.48-0.8
		c-1.94-0.97-1.89-2.53-2.32-4.45c-0.37-1.68-0.73-3.36-1.16-5.03c-0.29-1.12-1.03-2.19-2.18-2.03c-1.44,0.2-1.58,1.22-1.34,2.77
		c0.23,1.44,1.97,10.93,1.97,10.94c0.08,0.43,2.97,0.14,3.25,0.1C85.44,118.54,85.74,118.49,86.04,118.43z"/>
	<path style="fill:#8ABFD1;" d="M59.47,123.45c0,0,2.27-3.06,2.35-5.15c0.15-3.73,0.36-8.77,0.36-11.69c0-1.16,0.7-2.05,1.87-2.05
		c1.16,0,1.81,0.78,1.81,1.94c0,0.05,0.27,6.83,0.27,11.55c0,2.18,2.44,5.39,2.44,5.39c-1-0.45-2.75-1.32-4.55-1.24
		C61.74,122.31,59.47,123.45,59.47,123.45z"/>
</g>
</svg>
